!!!OTL: 2031. Die arme Seele.
!!!ARE: Europa, Mitteleuropa, Deutschland, Altmark
!!!SCT: E2031C
!!!TXL: @@DE
!!!YEM: Copyright 1995, estate of Helmut Schaffrath.
**kern	**text
*ICvox	*
*M3/4	*
*met(3)	*
*k[b-]	*
*F:	*
!LO:TX:a:t=Langſam.	!
!LO:TX:a:t=Aus der Altmark, Pariſius Nr. 1.	!
{8fL	Es
8aJ	.
=1	=1
4.cc	ſun-
8dd	-gen
8ccL	drei
8b-J	.
=2	=2
4a	En-
4g}	-gel
{4f	einen
=3	=3
4.cc	ſü-
8b-	-ßen
4a	Ge-
=4	=4
2g}	-ſang,
{8fL	ſie
8gJ	.
=5	=5
4a	ſun-
8a/L	-gen
8ccJ	.
4g	wohl,
=6	=6
4f	daß
4c}	es
{8fL	ʒum
8aJ	.
=7	=7
4.cc	Him-
8a	-mel
4g	'rein
=8	=8
2f}	klang.
==	==
!!!AGN: geistlich, Wallfahrts - Lied
!!!ONB: ESAC (Essen Associative Code) Database: ERK3
!!!AMT: simple triple
!!!AIN: vox
!!!EED: Helmut Schaffrath
!!!EEV: 1.0
!!!GTL: 4. Katholische Lieder: a) Wallfahrtlieder zur Bittwoche und zum Fronleichnamstag.
!!!URL-scan: https://rosdok.uni-rostock.de/mcrviewer/recordIdentifier/rosdok_ppn745177999/iview2/phys_0734.iview2?x=167.58329267015188&y=784.0376006592996&scale=0.7014306698522891&rotation=0&layout=singlePageLayout
!!!ENC: Anna Maria Matuszewska
!!!EEV: 2025/10/01
*-	*-
